P3
# 8-bit ppm - RGB
214 28
255
237 237 237 251 251 251 242 242 242 248 248 248 234 234 234 240 240 240 237 237 237 243
243 243 235 235 235 237 237 237 237 237 237 239 239 239 239 239 239 251 251 251 247 247
247 241 241 241 249 249 249 241 241 241 231 231 231 244 244 244 244 244 244 235 235 235
235 235 235 237 237 237 236 236 236 246 246 246 243 243 243 252 252 252 241 241 241 250
250 250 242 242 242 244 244 244 245 245 245 245 245 245 249 249 249 240 240 240 250 250
250 237 237 237 244 244 244 239 239 239 238 238 238 242 242 242 240 240 240 238 238 238
242 242 242 244 244 244 244 244 244 245 245 245 243 243 243 245 245 245 243 243 243 238
238 238 243 243 243 234 234 234 238 238 238 236 236 236 242 242 242 243 243 243 238 238
238 255 255 255 244 244 244 252 252 252 248 248 248 244 244 244 249 249 249 247 247 247
244 244 244 242 242 242 241 241 241 241 241 241 243 243 243 245 245 245 246 246 246 235
235 235 245 245 245 236 236 236 243 243 243 234 234 234 239 239 239 235 235 235 242 242
242 240 240 240 240 240 240 239 239 239 241 241 241 236 236 236 246 246 246 241 241 241
242 242 242 246 246 246 245 245 245 242 242 242 246 246 246 253 253 253 252 252 252 245
245 245 242 242 242 239 239 239 246 246 246 237 237 237 244 244 244 236 236 236 244 244
244 242 242 242 240 240 240 239 239 239 239 239 239 241 241 241 240 240 240 240 240 240
244 244 244 249 249 249 252 252 252 246 246 246 250 250 250 243 243 243 247 247 247 244
244 244 241 241 241 239 239 239 243 243 243 237 237 237 238 238 238 235 235 235 249 249
249 236 236 236 234 234 234 255 255 255 240 240 240 241 241 241 243 243 243 245 245 245
244 244 244 241 241 241 242 242 242 245 245 245 245 245 245 239 239 239 249 249 249 241
241 241 247 247 247 245 245 245 240 240 240 239 239 239 237 237 237 238 238 238 239 239
239 246 246 246 245 245 245 244 244 244 250 250 250 248 248 248 245 245 245 245 245 245
234 234 234 241 241 241 239 239 239 243 243 243 242 242 242 240 240 240 240 240 240 243
243 243 238 238 238 243 243 243 244 244 244 245 245 245 249 249 249 236 236 236 252 252
252 236 236 236 244 244 244 239 239 239 242 242 242 236 236 236 246 246 246 236 236 236
240 240 240 238 238 238 240 240 240 242 242 242 241 241 241 242 242 242 244 244 244 241
241 241 246 246 246 241 241 241 243 243 243 248 248 248 247 247 247 245 245 245 247 247
247 248 248 248 245 245 245 243 243 243 244 244 244 248 248 248 251 251 251 249 249 249
248 248 248 249 249 249 245 245 245 248 248 248 246 246 246 248 248 248 242 242 242 246
246 246 243 243 243 245 245 245 243 243 243 247 247 247 246 246 246 241 241 241 240 240
240 237 237 237
239 239 239 251 251 251 243 243 243 247 247 247 238 238 238 241 241 241 240 240 240 243
243 243 238 238 238 240 240 240 241 241 241 240 240 240 236 236 236 249 249 249 235 235
235 250 250 250 236 236 236 240 240 240 238 238 238 241 241 241 233 233 233 246 246 246
230 230 230 242 242 242 239 239 239 241 241 241 244 244 244 247 247 247 244 244 244 241
241 241 242 242 242 246 246 246 239 239 239 251 251 251 243 243 243 253 253 253 240 240
240 246 246 246 243 243 243 240 240 240 237 237 237 241 241 241 241 241 241 239 239 239
242 242 242 245 245 245 246 246 246 249 249 249 242 242 242 244 244 244 244 244 244 239
239 239 241 241 241 235 235 235 246 246 246 245 245 245 241 241 241 233 233 233 245 245
245 237 237 237 250 250 250 234 234 234 252 252 252 242 242 242 245 245 245 243 243 243
242 242 242 242 242 242 244 244 244 244 244 244 243 243 243 242 242 242 238 238 238 250
250 250 240 240 240 238 238 238 249 249 249 246 246 246 232 232 232 247 247 247 244 244
244 240 240 240 244 244 244 237 237 237 242 242 242 241 241 241 243 243 243 246 246 246
241 241 241 245 245 245 245 245 245 241 241 241 242 242 242 246 246 246 247 247 247 243
243 243 241 241 241 240 240 240 241 241 241 237 237 237 239 239 239 238 238 238 246 246
246 249 249 249 241 241 241 240 240 240 240 240 240 241 241 241 241 241 241 242 242 242
245 245 245 249 249 249 249 249 249 244 244 244 250 250 250 244 244 244 249 249 249 247
247 247 245 245 245 244 244 244 240 240 240 246 246 246 241 241 241 240 240 240 239 239
239 243 243 243 233 233 233 245 245 245 238 238 238 239 239 239 241 241 241 244 244 244
243 243 243 241 241 241 242 242 242 244 244 244 242 242 242 238 238 238 244 244 244 240
240 240 245 245 245 240 240 240 240 240 240 241 241 241 245 245 245 244 244 244 242 242
242 247 247 247 245 245 245 242 242 242 246 246 246 243 243 243 243 243 243 245 245 245
244 244 244 246 246 246 249 249 249 244 244 244 246 246 246 241 241 241 243 243 243 243
243 243 242 242 242 245 245 245 243 243 243 240 240 240 242 242 242 238 238 238 249 249
249 242 242 242 241 241 241 248 248 248 236 236 236 241 241 241 243 243 243 240 240 240
241 241 241 239 239 239 241 241 241 244 244 244 243 243 243 245 245 245 246 246 246 244
244 244 250 250 250 246 246 246 243 243 243 243 243 243 244 244 244 243 243 243 245 245
245 250 250 250 245 245 245 241 241 241 241 241 241 245 245 245 248 248 248 248 248 248
249 249 249 252 252 252 247 247 247 250 250 250 247 247 247 248 248 248 242 242 242 246
246 246 244 244 244 245 245 245 243 243 243 248 248 248 248 248 248 246 246 246 246 246
246 245 245 245
241 241 241 250 250 250 245 245 245 243 243 243 242 242 242 240 240 240 241 241 241 240
240 240 240 240 240 232 232 232 240 240 240 238 238 238 239 239 239 226 226 226 244 244
244 235 235 235 236 236 236 235 235 235 244 244 244 228 228 228 236 236 236 242 242 242
241 241 241 248 248 248 246 246 246 241 241 241 248 248 248 244 244 244 249 249 249 236
236 236 244 244 244 249 249 249 243 243 243 253 253 253 245 245 245 244 244 244 248 248
248 241 241 241 227 227 227 245 245 245 239 239 239 242 242 242 243 243 243 241 241 241
240 240 240 241 241 241 244 244 244 247 247 247 238 238 238 239 239 239 242 242 242 242
242 242 241 241 241 239 239 239 248 248 248 241 241 241 239 239 239 243 243 243 234 234
234 247 247 247 232 232 232 242 242 242 242 242 242 246 246 246 241 241 241 240 240 240
240 240 240 242 242 242 244 244 244 243 243 243 240 240 240 236 236 236 243 243 243 243
243 243 231 231 231 241 241 241 244 244 244 250 250 250 238 238 238 239 239 239 242 242
242 239 239 239 247 247 247 236 236 236 245 245 245 246 246 246 240 240 240 247 247 247
240 240 240 243 243 243 244 244 244 242 242 242 240 240 240 240 240 240 242 242 242 243
243 243 239 239 239 242 242 242 244 244 244 245 245 245 242 242 242 243 243 243 242 242
242 244 244 244 244 244 244 242 242 242 241 241 241 242 242 242 243 243 243 244 244 244
246 246 246 249 249 249 248 248 248 243 243 243 249 249 249 244 244 244 250 250 250 249
249 249 247 247 247 247 247 247 245 245 245 248 248 248 246 246 246 243 243 243 236 236
236 244 244 244 237 237 237 241 241 241 236 236 236 238 238 238 241 241 241 243 243 243
243 243 243 242 242 242 242 242 242 244 244 244 244 244 244 242 242 242 242 242 242 243
243 243 245 245 245 237 237 237 243 243 243 246 246 246 243 243 243 241 241 241 239 239
239 244 244 244 245 245 245 244 244 244 250 250 250 247 247 247 242 242 242 244 244 244
248 248 248 247 247 247 252 252 252 242 242 242 247 247 247 240 240 240 241 241 241 238
238 238 242 242 242 244 244 244 242 242 242 240 240 240 238 238 238 243 243 243 242 242
242 233 233 233 246 246 246 237 237 237 242 242 242 231 231 231 246 246 246 240 240 240
240 240 240 238 238 238 241 241 241 243 243 243 242 242 242 244 244 244 245 245 245 243
243 243 245 245 245 246 246 246 244 244 244 244 244 244 248 248 248 244 244 244 240 240
240 246 246 246 245 245 245 242 242 242 242 242 242 245 245 245 247 247 247 246 246 246
247 247 247 249 249 249 248 248 248 251 251 251 247 247 247 248 248 248 242 242 242 246
246 246 244 244 244 245 245 245 245 245 245 249 249 249 247 247 247 243 243 243 242 242
242 239 239 239
241 241 241 247 247 247 245 245 245 239 239 239 244 244 244 239 239 239 242 242 242 237
237 237 240 240 240 239 239 239 241 241 241 234 234 234 238 238 238 246 246 246 222 222
222 239 239 239 237 237 237 239 239 239 242 242 242 250 250 250 234 234 234 235 235 235
237 237 237 246 246 246 252 252 252 244 244 244 249 249 249 243 243 243 249 249 249 237
237 237 244 244 244 247 247 247 253 253 253 237 237 237 250 250 250 248 248 248 247 247
247 248 248 248 246 246 246 240 240 240 241 241 241 240 240 240 241 241 241 240 240 240
238 238 238 240 240 240 243 243 243 243 243 243 239 239 239 236 236 236 238 238 238 241
241 241 238 238 238 239 239 239 245 245 245 232 232 232 243 243 243 238 238 238 246 246
246 232 232 232 247 247 247 230 230 230 248 248 248 241 241 241 242 242 242 242 242 242
242 242 242 243 243 243 244 244 244 242 242 242 239 239 239 236 236 236 242 242 242 239
239 239 245 245 245 250 250 250 240 240 240 241 241 241 252 252 252 246 246 246 236 236
236 242 242 242 245 245 245 238 238 238 250 250 250 245 245 245 241 241 241 245 245 245
240 240 240 242 242 242 244 244 244 244 244 244 242 242 242 240 240 240 241 241 241 243
243 243 240 240 240 241 241 241 245 245 245 246 246 246 247 247 247 244 244 244 240 240
240 237 237 237 246 246 246 244 244 244 242 242 242 242 242 242 244 244 244 246 246 246
247 247 247 249 249 249 248 248 248 244 244 244 249 249 249 243 243 243 248 248 248 247
247 247 247 247 247 247 247 247 250 250 250 240 240 240 247 247 247 240 240 240 240 240
240 237 237 237 242 242 242 242 242 242 238 238 238 240 240 240 243 243 243 245 245 245
245 245 245 244 244 244 244 244 244 245 245 245 246 246 246 246 246 246 241 241 241 246
246 246 245 245 245 235 235 235 245 245 245 250 250 250 250 250 250 246 246 246 242 242
242 245 245 245 244 244 244 242 242 242 247 247 247 242 242 242 243 243 243 245 245 245
245 245 245 245 245 245 248 248 248 242 242 242 246 246 246 242 242 242 241 241 241 237
237 237 243 243 243 241 241 241 243 243 243 246 246 246 238 238 238 245 245 245 238 238
238 237 237 237 239 239 239 243 243 243 235 235 235 237 237 237 240 240 240 240 240 240
240 240 240 239 239 239 242 242 242 243 243 243 241 241 241 242 242 242 244 244 244 242
242 242 240 240 240 246 246 246 243 243 243 244 244 244 250 250 250 245 245 245 238 238
238 244 244 244 243 243 243 241 241 241 243 243 243 247 247 247 248 248 248 246 246 246
245 245 245 247 247 247 247 247 247 249 249 249 245 245 245 246 246 246 241 241 241 246
246 246 244 244 244 245 245 245 243 243 243 247 247 247 246 246 246 243 243 243 245 245
245 245 245 245
241 241 241 247 247 247 246 246 246 237 237 237 245 245 245 240 240 240 244 244 244 236
236 236 241 241 241 235 235 235 243 243 243 233 233 233 239 239 239 227 227 227 248 248
248 227 227 227 245 245 245 219 219 219 240 240 240 231 231 231 243 243 243 232 232 232
249 249 249 244 244 244 249 249 249 246 246 246 245 245 245 243 243 243 245 245 245 243
243 243 243 243 243 243 243 243 239 239 239 255 255 255 241 241 241 247 247 247 246 246
246 243 243 243 251 251 251 251 251 251 241 241 241 236 236 236 237 237 237 240 240 240
239 239 239 242 242 242 246 246 246 244 244 244 244 244 244 240 240 240 238 238 238 242
242 242 234 234 234 236 236 236 243 243 243 235 235 235 236 236 236 244 244 244 233 233
233 244 244 244 236 236 236 242 242 242 239 239 239 240 240 240 243 243 243 244 244 244
245 245 245 245 245 245 243 243 243 243 243 243 243 243 243 244 244 244 237 237 237 246
246 246 246 246 246 249 249 249 248 248 248 244 244 244 250 250 250 250 250 250 236 236
236 250 250 250 241 241 241 240 240 240 252 252 252 241 241 241 247 247 247 244 244 244
241 241 241 240 240 240 243 243 243 246 246 246 246 246 246 243 243 243 242 242 242 243
243 243 243 243 243 238 238 238 241 241 241 236 236 236 247 247 247 242 242 242 245 245
245 239 239 239 246 246 246 245 245 245 243 243 243 243 243 243 244 244 244 246 246 246
248 248 248 248 248 248 250 250 250 245 245 245 249 249 249 242 242 242 247 247 247 247
247 247 247 247 247 249 249 249 246 246 246 237 237 237 247 247 247 241 241 241 240 240
240 239 239 239 244 244 244 240 240 240 241 241 241 243 243 243 244 244 244 245 245 245
246 246 246 245 245 245 245 245 245 244 244 244 244 244 244 244 244 244 237 237 237 245
245 245 242 242 242 235 235 235 245 245 245 250 250 250 252 252 252 248 248 248 243 243
243 247 247 247 245 245 245 244 244 244 248 248 248 244 244 244 246 246 246 248 248 248
242 242 242 248 248 248 245 245 245 246 246 246 246 246 246 244 244 244 244 244 244 242
242 242 243 243 243 238 238 238 245 245 245 251 251 251 239 239 239 241 241 241 242 242
242 243 243 243 240 240 240 244 244 244 238 238 238 243 243 243 241 241 241 242 242 242
240 240 240 240 240 240 243 243 243 245 245 245 243 243 243 244 244 244 245 245 245 244
244 244 243 243 243 247 247 247 241 241 241 239 239 239 245 245 245 243 243 243 239 239
239 247 247 247 242 242 242 241 241 241 243 243 243 247 247 247 248 248 248 247 247 247
247 247 247 250 250 250 248 248 248 250 250 250 245 245 245 246 246 246 241 241 241 246
246 246 243 243 243 244 244 244 246 246 246 249 249 249 247 247 247 245 245 245 247 247
247 249 249 249
241 241 241 248 248 248 246 246 246 239 239 239 246 246 246 242 242 242 246 246 246 237
237 237 236 236 236 244 244 244 246 246 246 233 233 233 228 228 228 243 243 243 228 228
228 246 246 246 249 249 249 233 233 233 242 242 242 250 250 250 243 243 243 255 255 255
245 245 245 251 251 251 248 248 248 247 247 247 243 243 243 246 246 246 244 244 244 248
248 248 244 244 244 244 244 244 242 242 242 254 254 254 239 239 239 253 253 253 222 222
222 176 176 176 232 232 232 251 251 251 248 248 248 239 239 239 240 240 240 243 243 243
240 240 240 244 244 244 248 248 248 244 244 244 241 241 241 240 240 240 239 239 239 249
249 249 242 242 242 240 240 240 243 243 243 239 239 239 234 234 234 243 243 243 235 235
235 244 244 244 241 241 241 245 245 245 241 241 241 242 242 242 241 241 241 243 243 243
244 244 244 243 243 243 242 242 242 243 243 243 246 246 246 250 250 250 242 242 242 252
252 252 245 245 245 255 255 255 244 244 244 245 245 245 247 247 247 245 245 245 243 243
243 255 255 255 240 240 240 241 241 241 250 250 250 239 239 239 254 254 254 246 246 246
241 241 241 241 241 241 242 242 242 245 245 245 247 247 247 245 245 245 243 243 243 242
242 242 247 247 247 240 240 240 246 246 246 239 239 239 252 252 252 244 244 244 248 248
248 240 240 240 246 246 246 246 246 246 245 245 245 243 243 243 243 243 243 246 246 246
248 248 248 248 248 248 250 250 250 245 245 245 250 250 250 243 243 243 248 248 248 248
248 248 249 249 249 251 251 251 242 242 242 245 245 245 249 249 249 247 247 247 237 237
237 252 252 252 246 246 246 239 239 239 242 242 242 244 244 244 245 245 245 244 244 244
244 244 244 245 245 245 244 244 244 243 243 243 243 243 243 242 242 242 236 236 236 244
244 244 241 241 241 241 241 241 245 245 245 250 250 250 245 245 245 242 242 242 240 240
240 245 245 245 245 245 245 245 245 245 250 250 250 247 247 247 245 245 245 249 249 249
241 241 241 250 250 250 245 245 245 248 248 248 245 245 245 243 243 243 239 239 239 242
242 242 239 239 239 234 234 234 244 244 244 249 249 249 241 241 241 241 241 241 238 238
238 236 236 236 240 240 240 235 235 235 244 244 244 242 242 242 247 247 247 244 244 244
239 239 239 239 239 239 243 243 243 246 246 246 243 243 243 244 244 244 246 246 246 245
245 245 243 243 243 246 246 246 243 243 243 241 241 241 245 245 245 243 243 243 239 239
239 243 243 243 248 248 248 245 245 245 244 244 244 245 245 245 245 245 245 244 244 244
246 246 246 251 251 251 250 250 250 252 252 252 246 246 246 247 247 247 242 242 242 247
247 247 243 243 243 243 243 243 248 248 248 250 250 250 247 247 247 243 243 243 245 245
245 246 246 246
239 239 239 248 248 248 246 246 246 240 240 240 245 245 245 244 244 244 246 246 246 238
238 238 243 243 243 245 245 245 251 251 251 247 247 247 240 240 240 238 238 238 250 250
250 247 247 247 248 248 248 242 242 242 213 213 213 237 237 237 254 254 254 247 247 247
240 240 240 246 246 246 250 250 250 248 248 248 245 245 245 250 250 250 246 246 246 245
245 245 243 243 243 248 248 248 244 244 244 255 255 255 243 243 243 240 240 240 233 233
233 157 157 157 175 175 175 240 240 240 254 254 254 243 243 243 245 245 245 247 247 247
241 241 241 242 242 242 247 247 247 243 243 243 241 241 241 234 234 234 226 226 226 243
243 243 247 247 247 247 247 247 242 242 242 239 239 239 237 237 237 246 246 246 244 244
244 242 242 242 249 249 249 244 244 244 246 246 246 246 246 246 243 243 243 244 244 244
244 244 244 244 244 244 243 243 243 243 243 243 245 245 245 247 247 247 244 244 244 255
255 255 246 246 246 247 247 247 240 240 240 238 238 238 248 248 248 252 252 252 247 247
247 254 254 254 244 244 244 243 243 243 247 247 247 240 240 240 254 254 254 245 245 245
244 244 244 245 245 245 245 245 245 245 245 245 246 246 246 246 246 246 244 244 244 242
242 242 248 248 248 245 245 245 249 249 249 247 247 247 254 254 254 248 248 248 248 248
248 242 242 242 246 246 246 248 248 248 247 247 247 244 244 244 243 243 243 246 246 246
248 248 248 249 249 249 249 249 249 245 245 245 251 251 251 244 244 244 248 248 248 247
247 247 248 248 248 250 250 250 246 246 246 248 248 248 250 250 250 249 249 249 241 241
241 255 255 255 249 249 249 245 245 245 243 243 243 244 244 244 244 244 244 243 243 243
243 243 243 245 245 245 245 245 245 243 243 243 247 247 247 243 243 243 240 240 240 245
245 245 243 243 243 250 250 250 244 244 244 248 248 248 248 248 248 247 247 247 245 245
245 248 248 248 244 244 244 241 241 241 244 244 244 240 240 240 244 244 244 247 247 247
243 243 243 246 246 246 245 245 245 243 243 243 245 245 245 243 243 243 236 236 236 245
245 245 239 239 239 239 239 239 247 247 247 245 245 245 244 244 244 248 248 248 234 234
234 242 242 242 231 231 231 244 244 244 235 235 235 252 252 252 243 243 243 249 249 249
240 240 240 240 240 240 245 245 245 246 246 246 243 243 243 243 243 243 245 245 245 243
243 243 242 242 242 244 244 244 246 246 246 247 247 247 247 247 247 245 245 245 242 242
242 240 240 240 250 250 250 247 247 247 245 245 245 244 244 244 243 243 243 242 242 242
245 245 245 250 250 250 249 249 249 250 250 250 246 246 246 247 247 247 243 243 243 248
248 248 244 244 244 243 243 243 242 242 242 246 246 246 244 244 244 244 244 244 248 248
248 250 250 250
237 237 237 247 247 247 244 244 244 240 240 240 243 243 243 244 244 244 245 245 245 238
238 238 240 240 240 241 241 241 243 243 243 248 248 248 241 241 241 247 247 247 235 235
235 244 244 244 254 254 254 212 212 212  70  70  70 150 150 150 224 224 224 250 250 250
250 250 250 242 242 242 252 252 252 246 246 246 246 246 246 251 251 251 247 247 247 238
238 238 239 239 239 249 249 249 244 244 244 246 246 246 248 248 248 247 247 247 250 250
250 221 221 221 154 154 154 213 213 213 253 253 253 243 243 243 246 246 246 249 249 249
240 240 240 242 242 242 249 249 249 246 246 246 251 251 251 230 230 230 204 204 204 224
224 224 241 241 241 250 250 250 244 244 244 241 241 241 240 240 240 250 250 250 248 248
248 243 243 243 248 248 248 242 242 242 246 246 246 248 248 248 250 250 250 250 250 250
249 249 249 248 248 248 247 247 247 245 245 245 244 244 244 243 243 243 244 244 244 250
250 250 206 206 206 194 194 194 255 255 255 248 248 248 240 240 240 244 244 244 247 247
247 248 248 248 249 249 249 244 244 244 246 246 246 243 243 243 250 250 250 241 241 241
248 248 248 249 249 249 249 249 249 246 246 246 245 245 245 246 246 246 245 245 245 243
243 243 246 246 246 245 245 245 244 244 244 244 244 244 245 245 245 248 248 248 250 250
250 252 252 252 246 246 246 249 249 249 249 249 249 245 245 245 243 243 243 246 246 246
249 249 249 250 250 250 247 247 247 244 244 244 251 251 251 245 245 245 248 248 248 246
246 246 246 246 246 246 246 246 252 252 252 242 242 242 247 247 247 242 242 242 248 248
248 245 245 245 248 248 248 252 252 252 244 244 244 245 245 245 245 245 245 243 243 243
244 244 244 246 246 246 246 246 246 244 244 244 250 250 250 245 245 245 244 244 244 245
245 245 243 243 243 254 254 254 242 242 242 245 245 245 246 246 246 247 247 247 246 246
246 251 251 251 249 249 249 245 245 245 250 250 250 247 247 247 246 246 246 247 247 247
247 247 247 243 243 243 246 246 246 239 239 239 248 248 248 247 247 247 242 242 242 255
255 255 247 247 247 250 250 250 252 252 252 241 241 241 245 245 245 255 255 255 247 247
247 250 250 250 246 246 246 244 244 244 245 245 245 248 248 248 246 246 246 249 249 249
245 245 245 245 245 245 249 249 249 249 249 249 245 245 245 244 244 244 245 245 245 243
243 243 246 246 246 244 244 244 244 244 244 244 244 244 243 243 243 245 245 245 248 248
248 246 246 246 244 244 244 242 242 242 242 242 242 245 245 245 245 245 245 245 245 245
248 248 248 253 253 253 245 245 245 247 247 247 243 243 243 246 246 246 243 243 243 249
249 249 245 245 245 244 244 244 242 242 242 245 245 245 244 244 244 242 242 242 245 245
245 245 245 245
242 242 242 250 250 250 239 239 239 237 237 237 244 244 244 244 244 244 245 245 245 250
250 250 243 243 243 247 247 247 246 246 246 239 239 239 246 246 246 242 242 242 246 246
246 247 247 247 255 255 255 211 211 211 141 141 141 182 182 182 133 133 133 216 216 216
246 246 246 247 247 247 255 255 255 241 241 241 255 255 255 245 245 245 249 249 249 212
212 212 242 242 242 246 246 246 241 241 241 255 255 255 243 243 243 242 242 242 248 248
248 251 251 251 192 192 192 144 144 144 227 227 227 247 247 247 244 244 244 246 246 246
245 245 245 239 239 239 249 249 249 246 246 246 245 245 245 243 243 243 239 239 239 232
232 232 243 243 243 247 247 247 250 250 250 238 238 238 240 240 240 249 249 249 242 242
242 243 243 243 248 248 248 239 239 239 241 241 241 250 250 250 244 244 244 242 242 242
245 245 245 242 242 242 249 249 249 241 241 241 248 248 248 246 246 246 244 244 244 253
253 253 221 221 221 172 172 172 245 245 245 250 250 250 254 254 254 250 250 250 243 243
243 253 253 253 243 243 243 244 244 244 241 241 241 242 242 242 254 254 254 242 242 242
255 255 255 242 242 242 249 249 249 245 245 245 250 250 250 239 239 239 249 249 249 242
242 242 245 245 245 245 245 245 244 244 244 240 240 240 251 251 251 249 249 249 249 249
249 245 245 245 242 242 242 243 243 243 244 244 244 243 243 243 242 242 242 251 251 251
248 248 248 242 242 242 245 245 245 255 255 255 247 247 247 248 248 248 250 250 250 247
247 247 246 246 246 243 243 243 244 244 244 242 242 242 255 255 255 247 247 247 244 244
244 250 250 250 246 246 246 252 252 252 246 246 246 253 253 253 242 242 242 255 255 255
240 240 240 247 247 247 251 251 251 249 249 249 247 247 247 250 250 250 245 245 245 245
245 245 244 244 244 247 247 247 239 239 239 247 247 247 246 246 246 243 243 243 253 253
253 192 192 192 180 180 180 231 231 231 251 251 251 245 245 245 240 240 240 248 248 248
240 240 240 247 247 247 247 247 247 247 247 247 243 243 243 247 247 247 232 232 232 209
209 209 233 233 233 249 249 249 251 251 251 244 244 244 246 246 246 245 245 245 245 245
245 246 246 246 238 238 238 236 236 236 243 243 243 245 245 245 245 245 245 251 251 251
245 245 245 246 246 246 243 243 243 243 243 243 246 246 246 246 246 246 242 242 242 241
241 241 246 246 246 238 238 238 247 247 247 246 246 246 240 240 240 246 246 246 242 242
242 246 246 246 240 240 240 245 245 245 243 243 243 246 246 246 241 241 241 248 248 248
245 245 245 245 245 245 253 251 254 252 250 253 252 250 253 246 246 246 241 241 241 242
244 241 245 247 244 243 245 242 243 245 242 246 248 245 244 246 243 244 244 244 246 246
246 246 244 247
240 240 240 247 247 247 241 241 241 241 241 241 246 246 246 245 245 245 246 246 246 247
247 247 237 237 237 229 229 229 249 249 249 250 250 250 246 246 246 242 242 242 242 242
242 245 245 245 242 242 242 251 251 251 162 162 162 252 252 252 198 198 198 132 132 132
201 201 201 249 249 249 249 249 249 244 244 244 242 242 242 252 252 252 247 247 247 240
240 240 250 250 250 250 250 250 248 248 248 241 241 241 247 247 247 247 247 247 246 246
246 255 255 255 242 242 242 145 145 145 216 216 216 246 246 246 246 246 246 243 243 243
244 244 244 243 243 243 249 249 249 241 241 241 234 234 234 240 240 240 244 244 244 249
249 249 252 252 252 245 245 245 246 246 246 241 241 241 250 250 250 241 241 241 245 245
245 247 247 247 238 238 238 251 251 251 246 246 246 249 249 249 243 243 243 254 254 254
244 244 244 252 252 252 244 244 244 240 240 240 242 242 242 234 234 234 255 255 255 247
247 247 244 244 244 192 192 192 215 215 215 255 255 255 235 235 235 249 249 249 249 249
249 244 244 244 247 247 247 247 247 247 255 255 255 236 236 236 253 253 253 250 250 250
200 200 200 216 216 216 235 235 235 250 250 250 249 249 249 244 244 244 249 249 249 241
241 241 249 249 249 248 248 248 246 246 246 245 245 245 251 251 251 249 249 249 245 245
245 244 244 244 242 242 242 253 253 253 246 246 246 243 243 243 247 247 247 248 248 248
251 251 251 251 251 251 246 246 246 254 254 254 248 248 248 246 246 246 243 243 243 247
247 247 237 237 237 249 249 249 250 250 250 255 255 255 234 234 234 237 237 237 245 245
245 238 238 238 247 247 247 252 252 252 250 250 250 248 248 248 244 244 244 244 244 244
251 251 251 243 243 243 246 246 246 250 250 250 251 251 251 249 249 249 245 245 245 245
245 245 238 238 238 248 248 248 246 246 246 245 245 245 245 245 245 242 242 242 252 252
252 191 191 191 126 126 126 223 223 223 253 253 253 245 245 245 244 244 244 255 255 255
243 243 243 243 243 243 249 249 249 244 244 244 240 240 240 168 168 168 113 113 113 115
115 115 123 123 123 219 219 219 246 246 246 245 245 245 248 248 248 245 245 245 248 248
248 249 249 249 243 243 243 239 239 239 244 244 244 245 245 245 243 243 243 247 247 247
245 245 245 248 248 248 246 246 246 245 245 245 247 247 247 245 245 245 242 242 242 243
243 243 242 242 242 245 245 245 243 243 243 248 248 248 250 250 250 248 248 248 247 247
247 242 242 242 246 246 246 241 241 241 247 247 247 241 241 241 245 245 245 242 242 242
255 255 255 239 239 239 242 242 242 244 244 244 248 248 248 249 249 249 246 246 246 247
247 247 246 246 246 242 242 242 243 245 242 247 249 246 247 247 247 244 244 244 246 246
246 245 245 245
240 240 240 245 245 245 242 242 242 244 244 244 245 245 245 245 245 245 248 248 248 245
245 245 248 248 248 243 243 243 246 246 246 244 244 244 250 250 250 246 246 246 248 248
248 242 242 242 244 244 244 235 235 235 166 166 166 233 233 233 250 250 250 196 196 196
206 206 206 252 252 252 251 251 251 252 252 252 241 241 241 253 253 253 242 242 242 249
249 249 244 244 244 241 241 241 244 244 244 237 237 237 248 248 248 242 242 242 244 244
244 240 240 240 223 223 223 147 147 147 213 213 213 249 249 249 251 251 251 243 243 243
245 245 245 247 247 247 250 250 250 242 242 242 244 244 244 246 246 246 242 242 242 244
244 244 242 242 242 243 243 243 247 247 247 248 248 248 238 238 238 240 240 240 251 251
251 238 238 238 240 240 240 193 193 193 222 222 222 248 248 248 249 249 249 240 240 240
255 255 255 240 240 240 241 241 241 254 254 254 187 187 187 182 182 182 241 241 241 230
230 230 209 209 209 179 179 179 230 230 230 255 255 255 254 254 254 247 247 247 242 242
242 251 251 251 239 239 239 244 244 244 244 244 244 238 238 238 228 228 228 202 202 202
166 166 166 231 231 231 242 242 242 250 250 250 247 247 247 245 245 245 240 240 240 241
241 241 246 246 246 245 245 245 244 244 244 246 246 246 250 250 250 246 246 246 243 243
243 245 245 245 246 246 246 236 236 236 241 241 241 221 221 221 250 250 250 249 249 249
231 231 231 246 246 246 239 239 239 245 245 245 232 232 232 238 238 238 230 230 230 249
249 249 245 245 245 244 244 244 251 251 251 226 226 226 184 184 184 173 173 173 140 140
140 188 188 188 248 248 248 252 252 252 245 245 245 247 247 247 248 248 248 238 238 238
254 254 254 244 244 244 242 242 242 252 252 252 245 245 245 242 242 242 245 245 245 246
246 246 237 237 237 249 249 249 252 252 252 238 238 238 236 236 236 250 250 250 255 255
255 192 192 192 114 114 114 223 223 223 249 249 249 242 242 242 244 244 244 244 244 244
247 247 247 243 243 243 248 248 248 250 250 250 237 237 237 183 183 183 205 205 205 231
231 231 128 128 128 180 180 180 233 233 233 249 249 249 249 249 249 246 246 246 247 247
247 249 249 249 245 245 245 242 242 242 245 245 245 246 246 246 243 243 243 243 243 243
241 241 241 246 246 246 247 247 247 246 246 246 245 245 245 242 242 242 240 240 240 243
243 243 243 243 243 249 249 249 245 245 245 243 243 243 245 245 245 239 239 239 238 238
238 241 241 241 246 246 246 241 241 241 238 238 238 250 250 250 245 245 245 241 241 241
247 247 247 245 245 245 246 246 246 244 244 244 246 246 246 246 246 246 244 244 244 245
245 245 246 246 246 242 242 242 239 241 238 248 248 248 248 248 248 244 244 244 244 244
244 245 245 245
242 242 242 244 244 244 241 241 241 243 243 243 242 242 242 242 242 242 249 249 249 245
245 245 229 229 229 240 240 240 239 239 239 243 243 243 249 249 249 245 245 245 249 249
249 213 213 213 130 130 130 154 154 154 111 111 111 132 132 132 199 199 199 250 250 250
248 248 248 250 250 250 245 245 245 247 247 247 245 245 245 247 247 247 243 243 243 244
244 244 244 244 244 243 243 243 245 245 245 249 249 249 238 238 238 193 193 193 170 170
170 180 180 180 151 151 151 148 148 148 219 219 219 248 248 248 246 246 246 238 238 238
240 240 240 242 242 242 245 245 245 244 244 244 244 244 244 245 245 245 243 243 243 241
241 241 239 239 239 252 252 252 243 243 243 241 241 241 238 238 238 251 251 251 243 243
243 243 243 243 243 243 243 188 188 188 179 179 179 245 245 245 246 246 246 255 255 255
242 242 242 242 242 242 241 241 241 245 245 245 225 225 225 117 117 117 166 166 166 176
176 176 169 169 169 228 228 228 240 240 240 237 237 237 255 255 255 247 247 247 247 247
247 243 243 243 245 245 245 255 255 255 254 254 254 173 173 173 174 174 174 152 152 152
142 142 142 243 243 243 242 242 242 235 235 235 245 245 245 248 248 248 240 240 240 249
249 249 246 246 246 242 242 242 244 244 244 243 243 243 251 251 251 241 241 241 242 242
242 245 245 245 255 255 255 253 253 253 188 188 188 127 127 127 211 211 211 235 235 235
202 202 202 210 210 210 246 246 246 216 216 216 175 175 175 173 173 173 193 193 193 254
254 254 239 239 239 246 246 246 239 239 239 214 214 214 175 175 175 203 203 203 134 134
134 163 163 163 251 251 251 245 245 245 240 240 240 249 249 249 253 253 253 241 241 241
245 245 245 251 251 251 243 243 243 251 251 251 251 251 251 250 250 250 255 255 255 248
248 248 243 243 243 242 242 242 239 239 239 207 207 207 159 159 159 212 212 212 228 228
228 172 172 172 156 156 156 224 224 224 242 242 242 251 251 251 246 246 246 246 246 246
244 244 244 246 246 246 245 245 245 248 248 248 234 234 234 242 242 242 248 248 248 225
225 225 142 142 142 214 214 214 249 249 249 235 235 235 244 244 244 246 246 246 243 243
243 245 245 245 245 245 245 243 243 243 244 244 244 246 246 246 245 245 245 243 243 243
239 239 239 244 244 244 246 246 246 246 246 246 245 245 245 241 241 241 240 240 240 245
245 245 243 243 243 240 240 240 242 242 242 235 235 235 245 245 245 243 243 243 238 238
238 249 249 249 241 241 241 244 244 244 240 240 240 249 249 249 245 245 245 245 245 245
234 234 234 250 250 250 250 252 249 246 248 245 245 247 244 245 245 245 243 243 243 245
243 246 247 245 248 244 242 245 236 236 236 245 245 245 247 247 247 242 242 242 243 243
243 245 245 245
240 240 240 242 242 242 241 241 241 242 242 242 240 240 240 240 240 240 246 246 246 242
242 242 247 247 247 245 245 245 249 249 249 244 244 244 244 244 244 248 248 248 253 253
253 228 228 228  93  93  93 182 182 182 182 182 182 154 154 154 176 176 176 250 250 250
244 244 244 247 247 247 248 248 248 245 245 245 248 248 248 246 246 246 247 247 247 241
241 241 242 242 242 247 247 247 233 233 233 248 248 248 239 239 239 175 175 175 110 110
110 164 164 164 203 203 203 244 244 244 236 236 236 248 248 248 243 243 243 239 239 239
242 242 242 241 241 241 243 243 243 247 247 247 242 242 242 242 242 242 247 247 247 245
245 245 241 241 241 253 253 253 241 241 241 245 245 245 237 237 237 215 215 215 239 239
239 248 248 248 239 239 239 215 215 215 160 160 160 226 226 226 250 250 250 245 245 245
248 248 248 255 255 255 250 250 250 250 250 250 241 241 241 205 205 205 128 128 128 215
215 215 239 239 239 247 247 247 249 249 249 255 255 255 243 243 243 247 247 247 253 253
253 249 249 249 244 244 244 249 249 249 230 230 230 136 136 136 198 198 198 208 208 208
165 165 165 241 241 241 240 240 240 235 235 235 251 251 251 250 250 250 248 248 248 247
247 247 252 252 252 244 244 244 250 250 250 240 240 240 254 254 254 237 237 237 243 243
243 243 243 243 242 242 242 236 236 236 161 161 161 153 153 153 148 148 148 166 166 166
184 184 184 127 127 127 202 202 202 173 173 173 191 191 191 182 182 182 157 157 157 246
246 246 249 249 249 249 249 249 233 233 233 225 225 225 240 240 240 248 248 248 214 214
214 230 230 230 247 247 247 255 255 255 250 250 250 246 246 246 251 251 251 244 244 244
241 241 241 249 249 249 244 244 244 245 245 245 247 247 247 245 245 245 249 249 249 241
241 241 248 248 248 243 243 243 236 236 236 193 193 193 109 109 109 157 157 157 157 157
157 147 147 147 221 221 221 252 252 252 246 246 246 239 239 239 243 243 243 252 252 252
233 233 233 246 246 246 246 246 246 241 241 241 247 247 247 248 248 248 255 255 255 176
176 176 131 131 131 211 211 211 235 235 235 247 247 247 249 249 249 255 255 255 244 244
244 243 243 243 244 244 244 244 244 244 244 244 244 245 245 245 245 245 245 243 243 243
240 240 240 243 243 243 245 245 245 246 246 246 247 247 247 243 243 243 241 241 241 246
246 246 250 250 250 246 246 246 241 241 241 241 241 241 254 254 254 247 247 247 248 248
248 241 241 241 247 247 247 239 239 239 255 255 255 240 240 240 245 245 245 246 246 246
241 241 241 242 242 242 244 246 243 241 243 240 243 245 242 247 247 247 247 247 247 248
246 249 248 246 249 244 242 245 236 236 236 245 245 245 247 247 247 243 243 243 243 243
243 245 245 245
236 236 236 242 242 242 241 241 241 242 242 242 242 242 242 239 239 239 241 241 241 238
238 238 246 246 246 241 241 241 244 244 244 236 236 236 255 255 255 239 239 239 200 200
200 227 227 227 121 121 121 248 248 248 255 255 255 249 249 249 237 237 237 244 244 244
250 250 250 241 241 241 252 252 252 248 248 248 244 244 244 248 248 248 246 246 246 245
245 245 236 236 236 248 248 248 245 245 245 249 249 249 253 253 253 242 242 242 189 189
189 211 211 211 248 248 248 240 240 240 247 247 247 245 245 245 240 240 240 241 241 241
246 246 246 245 245 245 235 235 235 225 225 225 246 246 246 246 246 246 244 244 244 248
248 248 245 245 245 244 244 244 241 241 241 241 241 241 250 250 250 182 182 182 185 185
185 212 212 212 202 202 202 195 195 195 190 190 190 228 228 228 246 246 246 253 253 253
244 244 244 237 237 237 208 208 208 239 239 239 240 240 240 215 215 215 152 152 152 209
209 209 255 255 255 245 245 245 243 243 243 236 236 236 236 236 236 241 241 241 228 228
228 254 254 254 244 244 244 253 253 253 225 225 225 184 184 184 254 254 254 244 244 244
231 231 231 242 242 242 242 242 242 247 247 247 250 250 250 242 242 242 253 253 253 240
240 240 250 250 250 244 244 244 249 249 249 239 239 239 254 254 254 239 239 239 244 244
244 242 242 242 238 238 238 232 232 232 186 186 186 203 203 203 118 118 118 176 176 176
231 231 231 184 184 184  95  95  95 220 220 220 250 250 250 227 227 227 201 201 201 242
242 242 242 242 242 243 243 243 202 202 202 202 202 202 233 233 233 249 249 249 249 249
249 243 243 243 247 247 247 234 234 234 255 255 255 239 239 239 246 246 246 241 241 241
246 246 246 240 240 240 243 243 243 237 237 237 251 251 251 249 249 249 248 248 248 246
246 246 242 242 242 247 247 247 248 248 248 206 206 206 152 152 152 210 210 210 216 216
216 218 218 218 250 250 250 241 241 241 241 241 241 245 245 245 250 250 250 236 236 236
241 241 241 245 245 245 243 243 243 238 238 238 248 248 248 237 237 237 247 247 247 163
163 163 132 132 132 181 181 181 173 173 173 236 236 236 225 225 225 248 248 248 247 247
247 243 243 243 245 245 245 248 248 248 245 245 245 243 243 243 244 244 244 243 243 243
241 241 241 241 241 241 239 239 239 242 242 242 246 246 246 242 242 242 238 238 238 240
240 240 231 231 231 244 244 244 242 242 242 247 247 247 248 248 248 234 234 234 253 253
253 221 221 221 252 252 252 229 229 229 249 249 249 250 250 250 240 240 240 246 246 246
244 244 244 241 241 241 245 245 245 241 241 241 243 243 243 245 245 245 244 244 244 245
245 245 247 247 247 246 246 246 242 240 243 247 247 247 247 247 247 245 245 245 245 245
245 243 243 243
235 235 235 245 245 245 241 241 241 240 240 240 242 242 242 237 237 237 237 237 237 238
238 238 232 232 232 241 241 241 244 244 244 245 245 245 250 250 250 171 171 171 110 110
110 155 155 155 114 114 114 159 159 159 239 239 239 245 245 245 245 245 245 251 251 251
238 238 238 253 253 253 244 244 244 243 243 243 241 241 241 247 247 247 246 246 246 251
251 251 240 240 240 254 254 254 239 239 239 217 217 217 221 221 221 234 234 234 183 183
183 186 186 186 239 239 239 241 241 241 243 243 243 238 238 238 236 236 236 236 236 236
242 242 242 242 242 242 209 209 209 166 166 166 237 237 237 243 243 243 215 215 215 229
229 229 249 249 249 242 242 242 243 243 243 199 199 199 243 243 243 220 220 220 128 128
128 180 180 180 188 188 188 208 208 208 233 233 233 252 252 252 245 245 245 240 240 240
254 254 254 255 255 255 148 148 148 153 153 153 217 217 217 191 191 191 152 152 152 221
221 221 239 239 239 240 240 240 240 240 240 240 240 240 237 237 237 248 248 248 249 249
249 246 246 246 242 242 242 244 244 244 210 210 210 163 163 163 241 241 241 246 246 246
251 251 251 238 238 238 238 238 238 245 245 245 243 243 243 235 235 235 248 248 248 246
246 246 244 244 244 244 244 244 244 244 244 242 242 242 250 250 250 245 245 245 243 243
243 241 241 241 254 254 254 239 239 239 230 230 230 213 213 213 119 119 119 224 224 224
255 255 255 198 198 198 114 114 114 255 255 255 251 251 251 242 242 242 234 234 234 245
245 245 233 233 233 189 189 189 157 157 157 121 121 121 198 198 198 246 246 246 221 221
221 247 247 247 245 245 245 236 236 236 228 228 228 238 238 238 244 244 244 241 241 241
244 244 244 240 240 240 241 241 241 234 234 234 236 236 236 240 240 240 244 244 244 252
252 252 205 205 205 227 227 227 251 251 251 225 225 225 158 158 158 217 217 217 238 238
238 249 249 249 248 248 248 242 242 242 245 245 245 247 247 247 252 252 252 232 232 232
254 254 254 245 245 245 238 238 238 239 239 239 236 236 236 238 238 238 236 236 236 217
217 217 222 222 222 191 191 191 100 100 100 227 227 227 248 248 248 238 238 238 247 247
247 239 239 239 243 243 243 251 251 251 246 246 246 241 241 241 243 243 243 244 244 244
245 245 245 239 239 239 234 234 234 237 237 237 243 243 243 240 240 240 232 232 232 231
231 231 174 174 174 197 197 197 237 237 237 241 241 241 235 235 235 234 234 234 235 235
235 177 177 177 217 217 217 230 230 230 236 236 236 250 250 250 237 237 237 243 243 243
242 242 242 246 246 246 249 249 249 244 244 244 244 244 244 244 244 244 241 241 241 242
242 242 246 246 246 247 247 247 245 243 246 247 245 248 245 245 245 245 245 245 245 245
245 240 240 240
237 237 237 248 248 248 240 240 240 236 236 236 241 241 241 236 236 236 236 236 236 240
240 240 239 239 239 236 236 236 235 235 235 248 248 248 207 207 207 136 136 136 169 169
169 224 224 224 193 193 193 135 135 135 224 224 224 245 245 245 251 251 251 245 245 245
242 242 242 246 246 246 248 248 248 250 250 250 254 254 254 247 247 247 247 247 247 244
244 244 237 237 237 250 250 250 235 235 235 156 156 156 143 143 143 164 164 164 129 129
129 183 183 183 244 244 244 239 239 239 243 243 243 241 241 241 242 242 242 238 238 238
243 243 243 245 245 245 193 193 193 121 121 121 234 234 234 236 236 236 169 169 169 181
181 181 230 230 230 241 241 241 254 254 254 168 168 168 163 163 163 255 255 255 173 173
173 185 185 185 245 245 245 244 244 244 245 245 245 251 251 251 245 245 245 248 248 248
238 238 238 252 252 252 183 183 183 163 163 163 231 231 231 218 218 218 223 223 223 234
234 234 248 248 248 234 234 234 248 248 248 238 238 238 245 245 245 241 241 241 244 244
244 240 240 240 237 237 237 254 254 254 158 158 158 113 113 113 185 185 185 244 244 244
237 237 237 245 245 245 244 244 244 245 245 245 247 247 247 238 238 238 237 237 237 252
252 252 246 246 246 250 250 250 244 244 244 249 249 249 247 247 247 251 251 251 240 240
240 238 238 238 232 232 232 247 247 247 243 243 243 223 223 223 187 187 187 233 233 233
242 242 242 229 229 229 208 208 208 249 249 249 240 240 240 245 245 245 244 244 244 247
247 247 194 194 194 149 149 149 204 204 204 186 186 186 223 223 223 231 231 231 140 140
140 224 224 224 243 243 243 206 206 206 190 190 190 242 242 242 245 245 245 245 245 245
236 236 236 247 247 247 240 240 240 235 235 235 243 243 243 250 250 250 249 249 249 246
246 246 135 135 135 149 149 149 180 180 180 163 163 163 161 161 161 217 217 217 244 244
244 250 250 250 246 246 246 246 246 246 237 237 237 226 226 226 221 221 221 242 242 242
239 239 239 242 242 242 240 240 240 247 247 247 245 245 245 243 243 243 241 241 241 250
250 250 248 248 248 198 198 198 104 104 104 213 213 213 230 230 230 244 244 244 242 242
242 232 232 232 239 239 239 251 251 251 247 247 247 241 241 241 244 244 244 246 246 246
250 250 250 241 241 241 232 232 232 235 235 235 243 243 243 240 240 240 230 230 230 226
226 226 138 138 138 153 153 153 237 237 237 235 235 235 235 235 235 248 248 248 194 194
194 106 106 106 162 162 162 240 240 240 244 244 244 223 223 223 241 241 241 239 239 239
248 248 248 244 244 244 245 243 246 244 242 245 248 246 249 251 251 251 247 247 247 244
246 243 245 247 244 244 246 243 244 242 245 244 242 245 242 240 243 243 243 243 244 244
244 237 239 236
242 242 242 241 241 241 245 245 245 234 234 234 242 242 242 243 243 243 242 242 242 242
242 242 238 238 238 244 244 244 236 236 236 247 247 247 210 210 210 141 141 141 245 245
245 238 238 238 251 251 251 215 215 215 249 249 249 240 240 240 225 225 225 166 166 166
180 180 180 226 226 226 234 234 234 196 196 196 205 205 205 235 235 235 241 241 241 237
237 237 246 246 246 219 219 219 254 254 254 188 188 188 131 131 131 147 147 147 179 179
179 222 222 222 237 237 237 241 241 241 234 234 234 248 248 248 239 239 239 241 241 241
246 246 246 246 246 246 189 189 189 142 142 142 243 243 243 217 217 217 165 165 165 209
209 209 250 250 250 238 238 238 245 245 245 235 235 235 138 138 138 185 185 185 186 186
186 227 227 227 255 255 255 240 240 240 243 243 243 245 245 245 246 248 245 174 176 173
206 206 206 243 243 243 203 203 203 211 211 211 247 245 248 248 246 249 236 236 236 245
245 245 236 236 236 246 246 246 237 237 237 243 243 243 241 241 241 213 213 213 198 198
198 224 224 224 244 244 244 236 236 236 126 126 126 190 190 190 135 135 135 248 248 248
242 242 242 247 247 247 207 207 207 202 202 202 246 246 246 243 243 243 237 237 237 210
210 210 249 249 249 239 239 239 242 242 242 252 252 252 246 246 246 243 243 243 239 239
239 239 239 239 242 242 242 238 238 238 245 245 245 242 242 242 236 236 236 232 232 232
243 243 243 246 246 246 244 244 244 242 242 242 240 240 240 240 240 240 248 248 248 251
251 251 187 187 187 181 181 181 230 230 230 247 247 247 236 236 236 225 225 225 112 112
112 255 255 255 234 234 234 164 164 164 140 140 140 234 234 234 241 241 241 239 239 239
246 246 246 239 239 239 236 236 236 241 241 241 243 243 243 182 182 182 208 208 208 255
255 255 132 132 132 133 133 133 200 200 200 171 171 171 210 210 210 246 246 246 244 244
244 244 244 244 244 244 244 223 223 223 171 171 171 147 147 147 152 152 152 235 235 235
207 207 207 182 182 182 213 213 213 242 242 242 249 249 249 239 239 239 246 246 246 240
240 240 252 252 252 199 199 199 177 177 177 172 172 172 154 154 154 217 217 217 242 242
242 237 237 237 237 237 237 227 227 227 254 254 254 227 227 227 201 201 201 245 245 245
236 236 236 175 175 175 211 211 211 244 244 244 236 236 236 206 206 206 152 152 152 202
202 202 171 171 171 125 125 125 210 210 210 238 238 238 239 239 239 244 244 244 149 149
149  97  97  97 158 158 158 241 241 241 222 222 222 151 151 151 203 203 203 246 246 246
241 241 241 242 242 242 245 245 245 246 246 246 246 246 246 242 242 242 249 249 249 245
245 245 247 247 247 246 246 246 245 245 245 237 237 237 252 252 252 236 236 236 231 231
231 238 238 238
238 238 238 246 246 246 242 242 242 242 242 242 245 245 245 238 238 238 241 241 241 238
238 238 243 243 243 239 239 239 235 235 235 245 245 245 231 231 231 167 167 167 152 152
152 168 168 168 220 220 220 250 250 250 234 234 234 243 243 243 192 192 192 111 111 111
136 136 136 156 156 156 152 152 152 150 150 150 116 116 116 189 189 189 247 247 247 249
249 249 237 237 237 153 153 153 176 176 176 248 248 248 167 167 167 188 188 188 238 238
238 233 233 233 244 244 244 239 239 239 243 243 243 230 230 230 247 247 247 240 240 240
240 240 240 239 239 239 205 205 205 138 138 138 224 224 224 175 175 175 164 164 164 233
233 233 242 242 242 236 236 236 251 251 251 238 238 238 220 220 220  78  78  78 202 202
202 249 249 249 243 243 243 248 248 248 249 249 249 242 242 242 234 236 233 187 189 186
139 139 139 205 205 205 132 132 132 209 209 209 255 254 255 237 235 238 245 245 245 236
236 236 242 242 242 236 236 236 246 246 246 211 211 211 177 177 177 130 130 130 129 129
129 240 240 240 228 228 228 232 232 232 137 137 137 245 245 245 209 209 209 251 251 251
240 240 240 213 213 213 139 139 139 148 148 148 172 172 172 182 182 182 148 148 148 143
143 143 231 231 231 193 193 193 215 215 215 255 255 255 244 244 244 239 239 239 240 240
240 242 242 242 237 237 237 244 244 244 240 240 240 245 245 245 235 235 235 251 251 251
247 247 247 246 246 246 243 243 243 245 245 245 242 242 242 242 242 242 239 239 239 235
235 235 181 181 181 173 173 173 239 239 239 245 245 245 255 255 255 201 201 201 135 135
135 215 215 215 183 183 183 115 115 115 112 112 112 212 212 212 247 247 247 245 245 245
234 234 234 241 241 241 250 250 250 232 232 232 246 246 246 201 201 201 125 125 125 210
210 210 138 138 138 191 191 191 241 241 241 243 243 243 242 242 242 243 243 243 246 246
246 242 242 242 246 246 246 170 170 170 167 167 167 229 229 229 120 120 120 176 176 176
134 134 134 152 152 152 149 149 149 225 225 225 240 240 240 255 255 255 231 231 231 206
206 206 206 206 206 230 230 230 234 234 234 237 237 237 108 108 108 187 187 187 245 245
245 235 235 235 163 163 163 178 178 178 225 225 225 171 171 171 139 139 139 203 203 203
192 192 192  99  99  99 203 203 203 254 254 254 241 241 241 230 230 230 153 153 153 150
150 150 101 101 101 124 124 124 205 205 205 233 233 233 236 236 236 207 207 207 110 110
110  69  69  69 139 139 139 180 180 180 134 134 134 122 122 122 235 235 235 242 242 242
233 233 233 248 248 248 249 249 249 249 249 249 245 245 245 248 248 248 253 253 253 245
245 245 255 255 255 255 255 255 251 251 251 249 249 249 243 243 243 243 243 243 249 249
249 241 241 241
237 237 237 249 249 249 239 239 239 249 249 249 247 247 247 237 237 237 245 245 245 242
242 242 245 245 245 243 243 243 242 242 242 242 242 242 254 254 254 221 221 221 191 191
191 169 169 169 249 249 249 228 228 228 250 250 250 226 226 226 149 149 149 177 177 177
236 236 236 159 159 159 173 173 173 227 227 227 202 202 202 161 161 161 228 228 228 241
241 241 255 255 255 181 181 181 126 126 126 147 147 147 143 143 143 200 200 200 241 241
241 241 241 241 239 239 239 239 239 239 248 248 248 248 248 248 238 238 238 246 246 246
240 240 240 247 247 247 229 229 229 140 140 140 113 113 113 131 131 131 209 209 209 245
245 245 232 232 232 241 241 241 231 231 231 247 247 247 233 233 233 206 206 206 203 203
203 253 253 253 242 242 242 240 240 240 251 251 251 251 251 251 242 244 241 233 235 232
221 221 221 159 159 159  92  92  92 218 218 218 238 236 239 251 249 252 236 236 236 241
241 241 235 235 235 244 244 244 241 241 241 202 202 202 118 118 118 180 180 180 189 189
189 206 206 206 241 241 241 252 252 252 148 148 148 230 230 230 254 254 254 245 245 245
246 246 246 197 197 197 184 184 184 201 201 201 113 113 113 137 137 137 214 214 214 185
185 185 246 246 246 147 147 147 185 185 185 250 250 250 249 249 249 240 240 240 241 241
241 236 236 236 244 244 244 241 241 241 244 244 244 234 234 234 253 253 253 251 251 251
251 251 251 238 238 238 241 241 241 245 245 245 242 242 242 245 245 245 239 239 239 242
242 242 219 219 219 219 219 219 233 233 233 250 250 250 232 232 232 237 237 237 122 122
122 114 114 114 124 124 124 189 189 189 161 161 161 236 236 236 246 246 246 244 244 244
251 251 251 245 245 245 239 239 239 242 242 242 244 244 244 251 251 251 180 180 180 112
112 112 112 112 112 251 251 251 239 239 239 242 242 242 238 238 238 244 244 244 232 232
232 255 255 255 235 235 235 124 124 124 193 193 193 229 229 229 138 138 138 143 143 143
245 245 245 231 231 231 176 176 176 189 189 189 246 246 246 243 243 243 226 226 226 174
174 174 223 223 223 248 248 248 251 251 251 201 201 201 140 140 140 228 228 228 254 254
254 219 219 219 167 167 167 116 116 116 119 119 119 115 115 115 115 115 115 129 129 129
132 132 132 136 136 136 229 229 229 242 242 242 228 228 228 248 248 248 234 234 234 204
204 204 178 178 178 189 189 189 238 238 238 244 244 244 244 244 244 217 217 217 154 154
154 166 166 166 122 122 122 206 206 206 177 177 177 199 199 199 254 254 254 239 239 239
242 242 242 248 248 248 218 218 218 156 156 156 152 152 152 152 152 152 156 156 156 152
152 152 157 157 157 196 196 196 207 207 207 253 253 253 241 241 241 237 237 237 241 241
241 236 236 236
242 242 242 250 250 250 238 238 238 249 249 249 244 244 244 239 239 239 243 243 243 246
246 246 237 237 237 242 242 242 237 237 237 237 237 237 228 228 228 244 244 244 228 228
228 255 255 255 218 218 218 248 248 248 237 237 237 247 247 247 194 194 194 202 202 202
254 254 254 205 205 205 183 183 183 240 240 240 249 249 249 189 189 189 234 234 234 255
255 255 225 225 225 250 250 250 204 204 204 153 153 153 127 127 127 205 205 205 237 237
237 250 250 250 232 232 232 243 243 243 231 231 231 239 239 239 255 255 255 232 232 232
249 249 249 243 243 243 245 245 245 217 217 217 194 194 194 206 206 206 254 254 254 231
231 231 245 245 245 241 241 241 252 252 252 220 220 220 251 251 251 224 224 224 251 251
251 229 229 229 255 255 255 249 249 249 243 243 243 244 244 244 244 246 243 252 254 251
245 245 245 209 209 209 214 214 214 233 233 233 251 249 252 223 221 224 245 245 245 233
233 233 241 241 241 244 244 244 247 247 247 196 196 196 118 118 118 197 197 197 194 194
194 165 165 165 243 243 243 250 250 250 186 186 186 179 179 179 255 255 255 242 242 242
247 247 247 233 233 233 234 234 234 239 239 239 146 146 146 187 187 187 232 232 232 255
255 255 241 241 241 216 216 216 158 158 158 255 255 255 241 241 241 244 244 244 231 231
231 242 242 242 237 237 237 245 245 245 244 244 244 249 249 249 244 244 244 241 241 241
238 238 238 250 250 250 244 244 244 247 247 247 241 241 241 245 245 245 237 237 237 242
242 242 243 243 243 246 246 246 239 239 239 243 243 243 254 254 254 236 236 236 249 249
249 189 189 189 238 238 238 245 245 245 238 238 238 245 245 245 241 241 241 247 247 247
244 244 244 237 237 237 240 240 240 240 240 240 243 243 243 232 232 232 247 247 247 204
204 204 217 217 217 252 252 252 249 249 249 244 244 244 238 238 238 254 254 254 245 245
245 237 237 237 255 255 255 143 143 143  97  97  97 237 237 237 230 230 230 235 235 235
239 239 239 247 247 247 232 232 232 236 236 236 242 242 242 250 250 250 252 252 252 237
237 237 240 240 240 248 248 248 204 204 204 129 129 129 211 211 211 252 252 252 226 226
226 249 249 249 227 227 227 194 194 194 167 167 167 225 225 225 237 237 237 220 220 220
218 218 218 238 238 238 244 244 244 254 254 254 244 244 244 222 222 222 248 248 248 252
252 252 238 238 238 250 250 250 244 244 244 245 245 245 242 242 242 242 242 242 250 250
250 235 235 235 245 245 245 226 226 226 252 252 252 238 238 238 241 241 241 233 233 233
244 244 244 239 239 239 215 215 215 152 152 152 137 137 137 111 111 111 123 123 123 141
141 141 110 110 110  95  95  95 166 166 166 242 242 242 248 248 248 245 245 245 244 244
244 248 248 248
253 253 253 253 253 253 246 246 246 251 251 251 247 247 247 248 248 248 241 241 241 248
248 248 244 244 244 247 247 247 252 252 252 245 245 245 244 244 244 243 243 243 255 255
255 200 200 200 255 255 255 219 219 219 255 255 255 215 215 215 252 252 252 235 235 235
242 242 242 243 243 243 243 243 243 250 250 250 243 243 243 250 250 250 255 255 255 212
212 212 255 255 255 215 215 215 248 248 248 227 227 227 245 245 245 228 228 228 253 253
253 238 238 238 245 245 245 255 255 255 247 247 247 255 255 255 220 220 220 241 241 241
247 247 247 237 237 237 244 244 244 245 245 245 251 251 251 248 248 248 243 243 243 240
240 240 243 243 243 252 252 252 214 214 214 255 255 255 221 221 221 254 254 254 226 226
226 255 255 255 224 224 224 246 246 246 245 245 245 245 245 245 250 252 249 232 234 231
236 236 236 249 249 249 230 230 230 248 248 248 239 237 240 250 248 251 229 229 229 255
255 255 243 243 243 238 238 238 248 248 248 230 230 230 180 180 180 202 202 202 232 232
232 147 147 147 235 235 235 238 238 238 244 244 244 210 210 210 247 247 247 244 244 244
246 246 246 241 241 241 242 242 242 251 251 251 240 240 240 217 217 217 247 247 247 230
230 230 250 250 250 223 223 223 251 251 251 222 222 222 252 252 252 217 217 217 255 255
255 237 237 237 247 247 247 240 240 240 228 228 228 239 239 239 250 250 250 253 253 253
240 240 240 240 240 240 243 243 243 246 246 246 244 244 244 249 249 249 239 239 239 238
238 238 242 242 242 240 240 240 253 253 253 252 252 252 225 225 225 255 255 255 232 232
232 246 246 246 229 229 229 253 253 253 246 246 246 244 244 244 244 244 244 240 240 240
237 237 237 239 239 239 245 245 245 241 241 241 238 238 238 252 252 252 249 249 249 238
238 238 252 252 252 243 243 243 245 245 245 241 241 241 251 251 251 244 244 244 242 242
242 243 243 243 246 246 246 240 240 240 226 226 226 230 230 230 253 253 253 230 230 230
244 244 244 243 243 243 241 241 241 250 250 250 240 240 240 244 244 244 250 250 250 248
248 248 247 247 247 234 234 234 254 254 254 222 222 222 255 255 255 233 233 233 255 255
255 224 224 224 255 255 255 251 251 251 239 239 239 246 246 246 240 240 240 246 246 246
243 243 243 249 249 249 242 242 242 241 241 241 231 231 231 238 238 238 243 243 243 231
231 231 255 255 255 233 233 233 239 239 239 249 249 249 246 246 246 245 245 245 244 244
244 245 245 245 228 228 228 253 253 253 243 243 243 239 239 239 241 241 241 248 248 248
240 240 240 252 252 252 237 237 237 250 250 250 247 247 247 234 234 234 233 233 233 239
239 239 245 245 245 204 204 204 236 236 236 255 255 255 246 246 246 238 238 238 230 230
230 237 237 237
238 238 238 237 237 237 238 238 238 238 238 238 239 239 239 241 241 241 232 232 232 238
238 238 242 242 242 237 237 237 245 245 245 244 244 244 249 249 249 255 255 255 237 237
237 255 255 255 213 213 213 255 255 255 214 214 214 246 246 246 239 239 239 249 249 249
248 248 248 250 250 250 244 244 244 244 244 244 241 241 241 251 251 251 216 216 216 255
255 255 227 227 227 255 255 255 228 228 228 244 244 244 226 226 226 249 249 249 236 236
236 246 246 246 248 248 248 226 226 226 236 236 236 236 236 236 248 248 248 236 236 236
243 243 243 238 238 238 249 249 249 255 255 255 242 242 242 246 246 246 249 249 249 242
242 242 248 248 248 245 245 245 255 255 255 225 225 225 255 255 255 215 215 215 249 249
249 229 229 229 253 253 253 229 229 229 253 253 253 246 246 246 240 242 239 254 255 253
234 234 234 230 230 230 245 245 245 228 228 228 255 254 255 231 229 232 251 251 251 213
213 213 254 254 254 255 255 255 247 247 247 251 251 251 240 240 240 255 255 255 234 234
234 255 255 255 239 239 239 246 246 246 240 240 240 245 245 245 246 246 246 249 249 249
252 252 252 250 250 250 248 248 248 239 239 239 243 243 243 250 250 250 247 247 247 255
255 255 238 238 238 255 255 255 228 228 228 255 255 255 227 227 227 252 252 252 232 232
232 241 241 241 238 238 238 243 243 243 251 251 251 237 237 237 243 243 243 235 235 235
244 244 244 245 245 245 242 242 242 243 243 243 244 244 244 249 249 249 245 245 245 242
242 242 244 244 244 241 241 241 240 240 240 236 236 236 251 251 251 228 228 228 252 252
252 231 231 231 254 254 254 242 242 242 240 240 240 248 248 248 245 245 245 232 232 232
244 244 244 244 244 244 238 238 238 244 244 244 241 241 241 237 237 237 246 246 246 245
245 245 239 239 239 255 255 255 245 245 245 243 243 243 239 239 239 247 247 247 249 249
249 245 245 245 247 247 247 246 246 246 253 253 253 254 254 254 240 240 240 240 240 240
235 235 235 246 246 246 241 241 241 234 234 234 247 247 247 237 237 237 245 245 245 244
244 244 248 248 248 241 241 241 231 231 231 253 253 253 223 223 223 248 248 248 226 226
226 252 252 252 227 227 227 240 240 240 244 244 244 247 247 247 243 243 243 244 244 244
245 245 245 241 241 241 244 244 244 252 252 252 238 238 238 240 240 240 239 239 239 243
243 243 237 237 237 255 255 255 244 244 244 246 246 246 246 246 246 240 240 240 249 249
249 234 234 234 251 251 251 230 230 230 241 241 241 236 236 236 250 250 250 241 241 241
238 238 238 247 247 247 248 248 248 244 244 244 239 239 239 248 248 248 251 251 251 239
239 239 255 255 255 246 246 246 246 246 246 243 243 243 243 243 243 247 247 247 245 245
245 247 247 247
238 238 238 243 243 243 242 242 242 240 240 240 245 245 245 242 242 242 244 244 244 244
244 244 239 239 239 234 234 234 238 238 238 233 233 233 243 243 243 241 241 241 252 252
252 239 239 239 243 243 243 233 233 233 248 248 248 228 228 228 245 245 245 233 233 233
240 240 240 247 247 247 243 243 243 241 241 241 248 248 248 239 239 239 255 255 255 214
214 214 245 245 245 229 229 229 249 249 249 253 253 253 239 239 239 242 242 242 246 246
246 251 251 251 235 235 235 250 250 250 240 240 240 246 246 246 244 244 244 242 242 242
244 244 244 244 244 244 248 248 248 228 228 228 253 253 253 241 241 241 242 242 242 244
244 244 245 245 245 239 239 239 240 240 240 255 255 255 219 219 219 253 253 253 234 234
234 255 255 255 223 223 223 254 254 254 246 246 246 248 248 248 245 247 244 247 249 246
254 254 254 235 235 235 232 232 232 255 255 255 222 220 223 253 251 254 231 231 231 249
249 249 229 229 229 255 255 255 241 241 241 255 255 255 255 255 255 235 235 235 243 243
243 235 235 235 244 244 244 238 238 238 248 248 248 237 237 237 248 248 248 239 239 239
232 232 232 243 243 243 250 250 250 242 242 242 249 249 249 238 238 238 251 251 251 231
231 231 253 253 253 217 217 217 245 245 245 237 237 237 250 250 250 246 246 246 241 241
241 237 237 237 243 243 243 247 247 247 242 242 242 247 247 247 233 233 233 243 243 243
240 240 240 241 241 241 246 246 246 243 243 243 244 244 244 243 243 243 242 242 242 240
240 240 238 238 238 239 239 239 234 234 234 248 248 248 228 228 228 250 250 250 234 234
234 250 250 250 248 248 248 254 254 254 253 253 253 232 232 232 243 243 243 239 239 239
236 236 236 238 238 238 240 240 240 235 235 235 248 248 248 253 253 253 240 240 240 244
244 244 249 249 249 245 245 245 237 237 237 248 248 248 246 246 246 245 245 245 249 249
249 252 252 252 253 253 253 242 242 242 241 241 241 253 253 253 244 244 244 236 236 236
244 244 244 238 238 238 242 242 242 245 245 245 243 243 243 247 247 247 254 254 254 248
248 248 236 236 236 247 247 247 251 251 251 230 230 230 242 242 242 240 240 240 245 245
245 231 231 231 247 247 247 252 252 252 253 253 253 237 237 237 244 244 244 250 250 250
244 244 244 246 246 246 233 233 233 240 240 240 239 239 239 231 231 231 239 239 239 242
242 242 230 230 230 232 232 232 242 242 242 243 243 243 247 247 247 243 243 243 231 231
231 245 245 245 229 229 229 251 251 251 240 240 240 245 245 245 241 241 241 245 245 245
249 249 249 239 239 239 244 244 244 243 243 243 250 250 250 243 243 243 241 241 241 236
236 236 243 243 243 249 249 249 248 248 248 249 249 249 251 251 251 246 246 246 248 248
248 244 244 244
237 237 237 247 247 247 238 238 238 234 234 234 239 239 239 229 229 229 244 244 244 238
238 238 235 235 235 238 238 238 235 235 235 244 244 244 236 236 236 239 239 239 250 250
250 242 242 242 255 255 255 244 244 244 238 238 238 246 246 246 233 233 233 247 247 247
246 246 246 247 247 247 245 245 245 234 234 234 236 236 236 242 242 242 229 229 229 253
253 253 233 233 233 248 248 248 223 223 223 249 249 249 243 243 243 244 244 244 254 254
254 228 228 228 246 246 246 235 235 235 243 243 243 231 231 231 246 246 246 232 232 232
251 251 251 232 232 232 240 240 240 250 250 250 241 241 241 255 255 255 248 248 248 252
252 252 245 245 245 254 254 254 250 250 250 248 248 248 255 255 255 230 230 230 247 247
247 224 224 224 255 255 255 232 232 232 254 254 254 252 252 252 247 249 246 242 244 241
255 255 255 241 241 241 247 247 247 233 233 233 245 243 246 237 235 238 248 248 248 241
241 241 251 251 251 241 241 241 254 254 254 249 249 249 246 246 246 255 255 255 237 237
237 252 252 252 234 234 234 250 250 250 230 230 230 243 243 243 231 231 231 247 247 247
246 246 246 240 240 240 245 245 245 255 255 255 240 240 240 244 244 244 246 246 246 247
247 247 230 230 230 251 251 251 240 240 240 250 250 250 239 239 239 247 247 247 240 240
240 254 254 254 246 246 246 235 235 235 240 240 240 243 243 243 243 243 243 236 236 236
243 243 243 244 244 244 244 244 244 242 242 242 247 247 247 245 245 245 247 247 247 245
245 245 239 239 239 243 243 243 244 244 244 233 233 233 248 248 248 233 233 233 245 245
245 255 255 255 239 239 239 248 248 248 240 240 240 238 238 238 246 246 246 234 234 234
244 244 244 243 243 243 238 238 238 248 248 248 242 242 242 245 245 245 243 243 243 249
249 249 240 240 240 249 249 249 251 251 251 244 244 244 244 244 244 252 252 252 247 247
247 248 248 248 242 242 242 249 249 249 246 246 246 253 253 253 243 243 243 243 243 243
246 246 246 250 250 250 238 238 238 247 247 247 241 241 241 248 248 248 243 243 243 254
254 254 247 247 247 245 245 245 246 246 246 244 244 244 243 243 243 243 243 243 234 234
234 243 243 243 254 254 254 240 240 240 247 247 247 249 249 249 241 241 241 254 254 254
246 246 246 247 247 247 252 252 252 243 243 243 242 242 242 241 241 241 246 246 246 233
233 233 246 246 246 242 242 242 247 247 247 244 244 244 242 242 242 246 246 246 241 241
241 237 237 237 246 246 246 235 235 235 241 241 241 242 242 242 243 243 243 245 245 245
243 243 243 247 247 247 242 242 242 253 253 253 242 242 242 241 241 241 250 250 250 244
244 244 255 255 255 241 241 241 248 248 248 250 250 250 245 245 245 241 241 241 250 250
250 235 235 235
237 237 237 244 244 244 241 239 242 239 239 239 237 237 237 251 251 251 246 248 245 241
243 240 240 238 241 240 240 240 241 241 241 238 240 237 238 240 237 235 235 235 239 239
239 251 249 252 239 239 239 234 234 234 250 250 250 230 230 230 245 245 245 235 235 235
244 244 244 250 250 250 246 248 245 237 239 236 246 248 245 232 234 231 250 250 250 232
232 232 241 241 241 234 232 235 250 248 251 247 245 248 247 247 247 245 245 245 241 241
241 241 241 241 245 243 246 245 243 246 230 232 229 238 240 237 245 247 244 246 248 245
239 239 239 244 244 244 239 239 239 244 244 244 239 239 239 241 241 241 244 244 244 246
246 246 248 248 248 249 249 249 249 249 249 247 247 247 253 251 254 255 255 255 229 229
229 254 255 253 224 226 223 251 251 251 236 236 236 248 246 249 247 247 247 247 247 247
248 248 248 248 248 248 250 250 250 247 247 247 247 247 247 246 246 246 241 241 241 243
243 243 241 241 241 243 243 243 249 249 249 242 242 242 249 249 249 242 242 242 243 243
243 240 240 240 241 241 241 241 241 241 248 248 248 237 237 237 246 246 246 245 245 245
243 245 242 241 241 241 241 241 241 246 244 247 248 246 249 245 245 245 244 244 244 244
246 243 249 249 249 237 237 237 246 246 246 232 232 232 254 254 254 238 238 238 255 255
255 244 244 244 253 253 253 247 247 247 241 241 241 246 246 246 239 239 239 244 244 244
242 242 242 243 243 243 242 242 242 248 248 248 240 240 240 249 249 249 249 249 249 242
242 242 238 238 238 245 245 245 238 238 238 241 241 241 242 242 242 240 240 240 254 254
254 237 237 237 249 249 249 244 244 244 235 235 235 239 239 239 237 237 237 243 243 243
250 250 250 249 249 249 247 247 247 245 245 245 247 249 246 245 245 245 244 244 244 245
243 246 245 243 246 247 247 247 246 246 246 238 240 237 244 242 245 250 248 251 246 246
246 248 248 248 244 244 244 246 246 246 242 244 241 248 250 247 240 240 240 246 246 246
246 246 246 244 244 244 244 244 244 235 235 235 247 247 247 244 244 244 251 251 251 248
248 248 243 243 243 247 247 247 239 239 239 234 234 234 243 243 243 238 238 238 241 241
241 242 242 242 244 244 244 244 244 244 244 244 244 244 244 244 245 245 245 246 246 246
245 243 246 243 243 243 244 246 243 242 247 241 241 246 240 233 235 232 242 242 242 239
237 240 238 236 239 242 240 243 239 239 239 246 246 246 241 241 241 244 244 244 239 241
238 239 241 238 237 237 237 235 235 235 237 237 237 240 240 240 247 247 247 239 239 239
245 245 245 244 244 244 243 243 243 246 246 246 244 244 244 242 242 242 244 244 244 244
244 244 244 244 244 247 247 247 242 242 242 248 248 248 250 250 250 246 246 246 251 253
250 241 243 240
242 240 243 241 239 242 238 238 238 246 246 246 242 242 242 243 243 243 237 239 236 240
242 239 244 242 245 242 242 242 239 239 239 237 239 236 237 239 236 235 235 235 236 236
236 244 242 245 238 238 238 239 239 239 241 241 241 238 238 238 238 238 238 243 243 243
240 240 240 250 250 250 242 244 241 246 248 245 229 231 228 247 249 246 228 228 228 247
247 247 235 235 235 246 246 246 244 242 245 244 242 245 245 245 245 245 245 245 240 240
240 238 238 238 240 238 241 238 236 239 232 234 231 238 240 237 243 245 242 244 246 243
238 238 238 244 244 244 238 238 238 242 242 242 239 239 239 241 241 241 243 243 243 245
245 245 247 247 247 249 249 249 249 249 249 247 247 247 246 244 247 234 234 234 245 245
245 232 234 231 249 251 248 233 233 233 250 250 250 243 241 244 248 248 248 248 248 248
249 249 249 249 249 249 248 248 248 246 246 246 243 243 243 242 242 242 237 237 237 238
238 238 237 237 237 240 240 240 249 249 249 245 245 245 252 252 252 245 245 245 240 240
240 241 241 241 242 242 242 245 245 245 246 246 246 237 237 237 243 243 243 245 245 245
244 246 243 241 241 241 242 242 242 247 245 248 249 247 250 245 245 245 244 244 244 243
245 242 242 242 242 245 245 245 231 231 231 249 249 249 235 235 235 250 250 250 245 245
245 246 246 246 246 246 246 243 243 243 239 239 239 245 245 245 239 239 239 243 243 243
241 241 241 242 242 242 243 243 243 248 248 248 240 240 240 248 248 248 246 246 246 240
240 240 235 235 235 241 241 241 236 236 236 239 239 239 237 237 237 238 238 238 249 249
249 237 237 237 246 246 246 241 241 241 243 243 243 245 245 245 242 242 242 244 244 244
249 249 249 247 247 247 243 243 243 241 241 241 247 249 246 245 245 245 244 244 244 245
243 246 244 242 245 246 246 246 246 246 246 240 242 239 245 243 246 250 248 251 246 246
246 248 248 248 244 244 244 246 246 246 241 243 240 247 249 246 242 242 242 242 242 242
239 239 239 239 239 239 246 246 246 240 240 240 247 247 247 240 240 240 247 247 247 247
247 247 242 242 242 244 244 244 241 241 241 236 236 236 243 243 243 242 242 242 239 239
239 242 242 242 244 244 244 244 244 244 241 241 241 241 241 241 243 243 243 245 245 245
249 247 250 246 246 246 247 249 246 246 248 245 244 246 243 233 235 232 240 240 240 237
235 238 243 241 244 246 244 247 240 240 240 246 246 246 241 241 241 241 241 241 238 240
237 238 240 237 241 241 241 237 237 237 240 240 240 241 241 241 246 246 246 239 239 239
243 243 243 243 243 243 243 243 243 246 246 246 244 244 244 242 242 242 244 244 244 244
244 244 244 244 244 248 248 248 241 241 241 248 248 248 249 249 249 245 245 245 249 251
248 241 243 240
240 238 241 240 238 241 241 241 241 251 251 251 247 247 247 243 243 243 237 239 236 243
245 242 248 246 249 244 244 244 237 237 237 236 238 235 238 240 237 237 237 237 235 235
235 240 238 241 239 239 239 238 238 238 241 241 241 235 235 235 241 241 241 242 242 242
243 243 243 248 248 248 244 246 243 235 237 234 244 246 243 230 230 230 245 245 245 232
232 232 248 248 248 247 247 247 243 241 244 243 241 244 245 245 245 246 246 246 241 241
241 239 239 239 240 238 241 238 236 239 237 239 236 240 242 239 243 245 242 244 246 243
239 239 239 244 244 244 238 238 238 241 241 241 239 239 239 241 241 241 243 243 243 244
244 244 246 246 246 249 249 249 249 249 249 247 247 247 245 243 246 241 241 241 241 241
241 242 244 241 240 242 239 242 242 242 244 244 244 243 241 244 247 247 247 248 248 248
248 248 248 249 249 249 247 247 247 245 245 245 241 241 241 238 238 238 240 240 240 238
238 238 237 237 237 238 238 238 248 248 248 244 244 244 248 248 248 241 241 241 239 239
239 242 242 242 241 241 241 251 251 251 245 245 245 239 239 239 240 240 240 244 244 244
244 246 243 241 241 241 243 243 243 249 247 250 249 247 250 245 245 245 244 244 244 242
244 241 243 243 243 233 233 233 250 250 250 230 230 230 255 255 255 232 232 232 255 255
255 242 242 242 243 243 243 244 244 244 244 244 244 248 248 248 244 244 244 245 245 245
242 242 242 243 243 243 243 243 243 247 247 247 240 240 240 248 248 248 245 245 245 239
239 239 235 235 235 240 240 240 239 239 239 243 243 243 235 235 235 241 241 241 247 247
247 241 241 241 244 244 244 240 240 240 237 237 237 240 240 240 240 240 240 243 243 243
251 251 251 253 253 253 251 251 251 252 252 252 245 247 244 244 244 244 245 245 245 245
243 246 243 241 244 245 245 245 247 247 247 242 244 241 244 242 245 250 248 251 245 245
245 247 247 247 243 243 243 245 245 245 240 242 239 246 248 245 243 243 243 241 241 241
239 239 239 239 239 239 246 246 246 241 241 241 245 245 245 239 239 239 245 245 245 248
248 248 241 241 241 241 241 241 243 243 243 239 239 239 241 241 241 245 245 245 239 239
239 242 242 242 245 245 245 244 244 244 241 241 241 239 239 239 242 242 242 245 245 245
243 243 243 243 243 243 245 247 244 245 247 244 244 246 243 235 237 234 244 244 244 239
239 239 246 244 247 247 245 248 239 239 239 245 245 245 240 240 240 237 237 237 236 238
235 236 238 235 244 244 244 239 239 239 242 242 242 241 241 241 246 246 246 240 240 240
243 243 243 243 243 243 242 242 242 245 245 245 243 243 243 242 242 242 244 244 244 244
244 244 245 245 245 249 249 249 240 240 240 248 248 248 248 248 248 245 245 245 247 249
246 241 243 240
234 232 235 245 243 246 249 249 249 248 248 248 244 246 243 246 248 245 245 245 245 240
240 240 248 246 249 244 244 244 236 236 236 237 239 236 238 240 237 241 241 241 237 237
237 242 240 243 239 239 239 239 239 239 240 240 240 235 235 235 243 243 243 243 243 243
244 244 244 246 246 246 240 242 239 244 246 243 234 234 234 247 247 247 233 233 233 246
246 246 239 239 239 247 247 247 245 243 246 244 242 245 245 245 245 244 244 244 239 239
239 240 240 240 245 243 246 245 243 246 243 245 242 243 245 242 244 246 243 245 247 244
241 241 241 246 246 246 238 238 238 241 241 241 238 240 237 242 242 242 244 244 244 244
244 244 247 247 247 250 250 250 249 249 249 247 245 248 253 251 254 247 247 247 246 246
246 241 243 240 236 238 235 243 243 243 243 243 243 245 243 246 245 245 245 248 248 248
247 247 247 250 250 250 246 246 246 248 248 248 241 241 241 238 238 238 245 245 245 239
239 239 237 237 237 236 236 236 246 246 246 243 243 243 243 243 243 235 235 235 240 240
240 244 244 244 238 238 238 253 253 253 243 243 243 241 241 241 238 238 238 243 243 243
244 246 243 239 239 239 244 244 244 250 248 251 248 246 249 245 245 245 245 245 245 241
243 240 240 240 240 242 242 242 242 242 242 246 246 246 243 243 243 244 244 244 250 250
250 246 246 246 246 246 246 250 250 250 250 250 250 251 251 251 248 248 248 246 246 246
243 243 243 245 245 245 243 243 243 246 246 246 241 241 241 250 250 250 246 246 246 242
242 242 241 241 241 243 243 243 245 245 245 250 250 250 236 236 236 245 245 245 246 246
246 244 244 244 243 243 243 238 238 238 243 243 243 243 243 243 244 244 244 244 244 244
249 249 249 252 252 252 248 248 248 251 251 251 244 246 243 244 244 244 245 245 245 245
243 246 242 240 243 244 244 244 248 248 248 245 247 244 244 242 245 249 247 250 244 244
244 246 246 246 243 243 243 245 245 245 240 242 239 245 247 244 244 244 244 244 244 244
248 248 248 244 244 244 244 244 244 236 236 236 241 241 241 242 242 242 245 245 245 251
251 251 242 242 242 238 238 238 245 245 245 240 240 240 237 237 237 245 245 245 242 242
242 244 244 244 246 246 246 245 245 245 243 243 243 242 242 242 243 243 243 244 244 244
236 236 236 238 238 238 242 242 242 242 244 241 243 245 242 237 237 237 245 245 245 240
240 240 244 242 245 245 243 246 236 236 236 243 243 243 240 240 240 233 233 233 236 238
235 235 237 234 243 243 243 238 238 238 242 242 242 239 239 239 245 245 245 242 242 242
244 244 244 246 246 246 242 242 242 244 244 244 243 243 243 243 243 243 244 244 244 244
244 244 245 245 245 251 251 251 239 239 239 249 249 249 249 249 249 247 247 247 246 248
245 242 244 241
